file/sabc.svg

<svg clip-rule="evenodd" fill-rule="evenodd" stroke-linejoin="round" stroke-miterlimit="1.41421" viewBox="0 0 560 400" xmlns="http://www.w3.org/2000/svg"><g fill-rule="nonzero" transform="matrix(.360242 0 0 .360242 95.5563 121.467)"><path d="m301.553 420.669h47.049c35.911 0 67.278-8.579 67.278-44.308 0-23.342-16.95-38.106-40.978-40.014 22.259-5.717 36.424-17.149 36.424-40.015 0-30.733-25.295-41.923-61.969-41.923h-47.804zm25.294-75.744h16.438c21.755 0 45.782 3.574 45.782 29.293 0 22.389-20.488 26.917-43.249 26.917h-18.971zm0-70.981h26.561c14.668 0 32.623 4.996 32.623 24.765 0 24.539-20.74 26.682-45.271 26.682h-13.913zm245.256-15.406c-12.647-5.239-26.049-7.147-39.711-7.147-53.876 0-93.335 34.064-93.335 85.277 0 52.878 37.187 86.699 93.084 86.699 10.366 0 26.812-.711 40.214-5.951l-1.518-23.108c-8.848 5.005-25.798 8.093-38.445 8.093-36.674 0-66.523-25.962-66.523-65.022 0-37.395 27.064-65.031 67.79-65.031 12.898 0 25.294 3.097 36.423 9.29zm-367.355 50.129-27.211 62.134h54.726zm37.004 83.264h-74.234l-13.341 28.92h-26.084l75.519-165.383 76.42 165.383h-25.745zm-135.075-134.39c-12.136-4.051-26.049-5.959-37.681-5.959-31.878 0-56.661 15.726-56.661 45.262 0 51.69 75.883 41.446 75.883 78.606 0 19.526-20.237 27.151-34.654 27.151-12.899 0-28.079-4.762-36.675-8.102l-2.533 22.154c11.633 3.574 23.777 6.913 36.172 6.913 35.408 0 64.502-14.061 64.502-49.547 0-54.787-75.883-47.405-75.883-79.318 0-17.391 16.69-22.154 30.855-22.154 13.159 0 20.237 2.143 33.136 6.905z"/><path d="m582.306 27.359s154.194-52.636 313.219 39.641l1.084 55.646s59.159-17.366 115.061 3.252l-54.818 47.475s-142.752-157.109-362.021-97.95z" fill="#feb912"/><path d="m528.069 150.612 24.713 40.952s177.467-102.296 334.324 46.138l37.455-32.294s-166.632-178.534-396.492-54.796" fill="#009247"/><path d="m687.108 203.238s92.529-10.591 166.624 65.664l-35.547 35.548s-36.631-50.476-131.077-54.813z" fill="#0060af"/><path d="m686.024 297.941s52.384-8.422 99.867 35.547l-97.698 90.1z" fill="#ed1c24"/></g></svg>

<?xml version="1.0" encoding="UTF-8" standalone="no"?>
<!DOCTYPE svg PUBLIC "-//W3C//DTD SVG 1.1//EN" "http://www.w3.org/Graphics/SVG/1.1/DTD/svg11.dtd">
<svg width="100%" height="100%" viewBox="0 0 560 400" version="1.1" xmlns="http://www.w3.org/2000/svg" xmlns:xlink="http://www.w3.org/1999/xlink" xml:space="preserve" xmlns:serif="http://www.serif.com/" style="fill-rule:evenodd;clip-rule:evenodd;stroke-linejoin:round;stroke-miterlimit:1.41421;">
    <g transform="matrix(0.360242,0,0,0.360242,95.5563,121.467)">
        <path id="path2536" d="M301.553,420.669L348.602,420.669C384.513,420.669 415.88,412.09 415.88,376.361C415.88,353.019 398.93,338.255 374.902,336.347C397.161,330.63 411.326,319.198 411.326,296.332C411.326,265.599 386.031,254.409 349.357,254.409L301.553,254.409L301.553,420.669ZM326.847,344.925L343.285,344.925C365.04,344.925 389.067,348.499 389.067,374.218C389.067,396.607 368.579,401.135 345.818,401.135L326.847,401.135L326.847,344.925ZM326.847,273.944L353.408,273.944C368.076,273.944 386.031,278.94 386.031,298.709C386.031,323.248 365.291,325.391 340.76,325.391L326.847,325.391L326.847,273.944ZM572.103,258.538C559.456,253.299 546.054,251.391 532.392,251.391C478.516,251.391 439.057,285.455 439.057,336.668C439.057,389.546 476.244,423.367 532.141,423.367C542.507,423.367 558.953,422.656 572.355,417.416L570.837,394.308C561.989,399.313 545.039,402.401 532.392,402.401C495.718,402.401 465.869,376.439 465.869,337.379C465.869,299.984 492.933,272.348 533.659,272.348C546.557,272.348 558.953,275.445 570.082,281.638L572.103,258.538ZM204.748,308.667L177.537,370.801L232.263,370.801L204.748,308.667ZM241.752,391.931L167.518,391.931L154.177,420.851L128.093,420.851L203.612,255.468L280.032,420.851L254.287,420.851L241.752,391.931ZM106.677,257.541C94.541,253.49 80.628,251.582 68.996,251.582C37.118,251.582 12.335,267.308 12.335,296.844C12.335,348.534 88.218,338.29 88.218,375.45C88.218,394.976 67.981,402.601 53.564,402.601C40.665,402.601 25.485,397.839 16.889,394.499L14.356,416.653C25.989,420.227 38.133,423.566 50.528,423.566C85.936,423.566 115.03,409.505 115.03,374.019C115.03,319.232 39.147,326.614 39.147,294.701C39.147,277.31 55.837,272.547 70.002,272.547C83.161,272.547 90.239,274.69 103.138,279.452L106.677,257.541Z" style="fill-rule:nonzero;"/>
        <path id="path2540" d="M582.306,27.359C582.306,27.359 736.5,-25.277 895.525,67L896.609,122.646C896.609,122.646 955.768,105.28 1011.67,125.898L956.852,173.373C956.852,173.373 814.1,16.264 594.831,75.423L582.306,27.359Z" style="fill:rgb(254,185,18);fill-rule:nonzero;"/>
        <path id="path2544" d="M528.069,150.612L552.782,191.564C552.782,191.564 730.249,89.268 887.106,237.702L924.561,205.408C924.561,205.408 757.929,26.874 528.069,150.612" style="fill:rgb(0,146,71);fill-rule:nonzero;"/>
        <path id="path2548" d="M687.108,203.238C687.108,203.238 779.637,192.647 853.732,268.902L818.185,304.45C818.185,304.45 781.554,253.974 687.108,249.637L687.108,203.238Z" style="fill:rgb(0,96,175);fill-rule:nonzero;"/>
        <path id="path2552" d="M686.024,297.941C686.024,297.941 738.408,289.519 785.891,333.488L688.193,423.588L686.024,297.941Z" style="fill:rgb(237,28,36);fill-rule:nonzero;"/>
    </g>
</svg>
